X: 53
T: Lady Anne Montgomery
R: reel
Z: 2012 John Chambers <jc@trillian.mit.edu>
B: "100 Essential Irish Session Tunes" 1995 Dave Mallinson, ed.
M: 4/4
L: 1/8
K: D
|:\
"D"FADA FADA | FAdA "G"BAdA | "D"FADF "A7"EDEF | "G"DB,A,B, "D"D2 ((3DDD) |
"D"FADA FADA | "D"FAdA "G"BABc | "D"dBAF "Em"E3F |1 "G"DB,A,B, "D"D2 ((3DDD) :|2 "G"DB,A,B, "D"D2z2 |]
|:\
"D"f3e fede | fedB "G"ABde | "D"f2fe fede | fgag "A7"((3efe) de |
"D"f2fe fede | "Bm"fedB ABde | "Em"f2ed BdAd |1 "A7"egfe "D"d2de :|2 "A7"egfe "D"d3D |]

%%sep 2 1 500
%%sep 1 1 500

